X: 31031
T: Paddy Canny's Toast
R: reel
M: 4/4
K: Edorian
|:E2 BE dEBE|D2 FD ADFD|E2 BE dEBE|BdAF FEED|
E2 BE dEBE|D2 FD ADFD|BcBA GABd|AFdF FE E2:|
|:E2 ef dBAF|D2 FD ADFD|E2 ef dBAF|BdAF FEED|
E2 ef dBAF|D2 FD ADFD|BcBA GABd|AFdF FE E2:|

